X:190
T: Spinn, Spinn (2-94) S. 275
N: P0965
O: Lothringen
S: PINCK, Louis: Verklingende Weisen, Bd 2, Metz 1928]
R: ???, Aussicht auf einen Mann]
M: 3/4
L: 1/8
K: G
D2 | G2GGFE | D2D2
DD | E2E2FA | G4
D2 | G2GGAA | B2B2
G2 | A2A2F2 | G4
D2 | G2G2A2 | B2B2B2 | B2A2BA | G2G2
D2 | G2G2A2 | B2d2B2 | A2B2A2 | G4

